SF_Symbols/tag.slash.svg

<?xml version="1.0" encoding="UTF-8"?>
<svg xmlns="http://www.w3.org/2000/svg" xmlns:xlink="http://www.w3.org/1999/xlink" width="24" height="24" viewBox="0 0 24 24" version="1.1">
<g id="surface1">
<path style=" stroke:none;fill-rule:nonzero;fill:rgb(100%,100%,100%);fill-opacity:1;" d="M 16.136719 18.699219 L 14.949219 17.5 L 11.519531 20.925781 C 10.757812 21.699219 9.988281 21.695312 9.21875 20.917969 L 2.75 14.457031 C 2.367188 14.078125 2.175781 13.691406 2.175781 13.300781 C 2.183594 12.90625 2.371094 12.523438 2.738281 12.15625 L 6.1875 8.71875 L 5.011719 7.53125 L 1.488281 11.042969 C 0.746094 11.785156 0.371094 12.539062 0.363281 13.300781 C 0.359375 14.066406 0.734375 14.828125 1.5 15.59375 L 8.09375 22.175781 C 8.859375 22.933594 9.621094 23.308594 10.386719 23.300781 C 11.148438 23.300781 11.902344 22.929688 12.644531 22.1875 Z M 17.824219 14.625 L 19.019531 15.8125 L 22.800781 12.011719 C 23.066406 11.746094 23.253906 11.511719 23.363281 11.300781 C 23.484375 11.085938 23.554688 10.859375 23.582031 10.613281 C 23.617188 10.363281 23.636719 10.054688 23.636719 9.6875 L 23.636719 5.730469 C 23.636719 5.359375 23.601562 5.0625 23.53125 4.832031 C 23.46875 4.597656 23.359375 4.382812 23.207031 4.1875 C 23.054688 3.984375 22.847656 3.753906 22.582031 3.488281 L 20.1875 1.09375 C 19.921875 0.835938 19.695312 0.632812 19.5 0.480469 C 19.304688 0.320312 19.089844 0.207031 18.855469 0.144531 C 18.625 0.078125 18.328125 0.0429688 17.957031 0.0429688 L 13.988281 0.0429688 C 13.628906 0.0429688 13.324219 0.0585938 13.074219 0.09375 C 12.824219 0.121094 12.589844 0.195312 12.375 0.3125 C 12.167969 0.429688 11.933594 0.617188 11.675781 0.875 L 7.875 4.667969 L 9.0625 5.855469 L 12.855469 2.0625 C 12.957031 1.957031 13.070312 1.875 13.1875 1.8125 C 13.3125 1.75 13.460938 1.71875 13.636719 1.71875 L 18.019531 1.71875 C 18.304688 1.71875 18.558594 1.832031 18.78125 2.0625 L 21.625 4.894531 C 21.847656 5.117188 21.957031 5.371094 21.957031 5.65625 L 21.957031 10.050781 C 21.957031 10.226562 21.925781 10.371094 21.863281 10.488281 C 21.808594 10.609375 21.730469 10.71875 21.625 10.824219 Z M 16.738281 8.375 C 17.148438 8.375 17.488281 8.234375 17.761719 7.957031 C 18.03125 7.679688 18.167969 7.34375 18.167969 6.949219 C 18.167969 6.546875 18.03125 6.207031 17.761719 5.9375 C 17.488281 5.660156 17.148438 5.519531 16.738281 5.519531 C 16.328125 5.519531 15.988281 5.660156 15.71875 5.9375 C 15.449219 6.207031 15.3125 6.546875 15.3125 6.949219 C 15.3125 7.34375 15.449219 7.679688 15.71875 7.957031 C 15.988281 8.234375 16.328125 8.375 16.738281 8.375 Z M 20.480469 21.28125 C 20.640625 21.441406 20.828125 21.519531 21.050781 21.519531 C 21.273438 21.519531 21.460938 21.441406 21.613281 21.28125 C 21.765625 21.128906 21.84375 20.941406 21.84375 20.71875 C 21.851562 20.496094 21.773438 20.304688 21.613281 20.144531 L 3.53125 2.0625 C 3.371094 1.902344 3.179688 1.824219 2.957031 1.824219 C 2.734375 1.824219 2.546875 1.902344 2.386719 2.0625 C 2.234375 2.214844 2.15625 2.40625 2.15625 2.636719 C 2.15625 2.859375 2.234375 3.046875 2.386719 3.199219 Z M 20.480469 21.28125 "/>
</g>
</svg>

<svg xmlns="http://www.w3.org/2000/svg" width="24" height="24"><path style="stroke:none;fill-rule:nonzero;fill:#fff;fill-opacity:1" d="m16.137 18.7-1.188-1.2-3.43 3.426c-.761.773-1.53.77-2.3-.008L2.75 14.457c-.383-.379-.574-.766-.574-1.156.008-.395.195-.778.562-1.145l3.45-3.437L5.011 7.53l-3.524 3.512c-.742.742-1.117 1.496-1.125 2.258-.004.765.371 1.527 1.137 2.293l6.594 6.582c.765.758 1.527 1.133 2.293 1.125.761 0 1.515-.371 2.258-1.113Zm1.687-4.075 1.196 1.188 3.78-3.801c.266-.266.454-.5.563-.711.121-.215.192-.442.219-.688.035-.25.055-.558.055-.925V5.73c0-.37-.035-.668-.106-.898a1.761 1.761 0 0 0-.324-.644 7.068 7.068 0 0 0-.625-.7l-2.395-2.394A9.284 9.284 0 0 0 19.5.48a1.7 1.7 0 0 0-.645-.335 3.323 3.323 0 0 0-.898-.102h-3.969c-.36 0-.664.016-.914.05-.25.028-.484.102-.699.22a3.349 3.349 0 0 0-.7.562l-3.8 3.793 1.188 1.187 3.792-3.793c.102-.105.215-.187.332-.25a.988.988 0 0 1 .45-.093h4.383c.285 0 .539.113.761.343l2.844 2.833c.223.222.332.476.332.761v4.395c0 .176-.031.32-.094.437-.054.121-.133.23-.238.336Zm-1.086-6.25c.41 0 .75-.14 1.024-.418.27-.277.406-.613.406-1.008 0-.402-.137-.742-.406-1.011a1.385 1.385 0 0 0-1.024-.418c-.41 0-.75.14-1.02.418-.269.269-.405.609-.405 1.011 0 .395.136.73.406 1.008.27.277.61.418 1.02.418Zm3.742 12.906c.16.16.348.239.57.239.223 0 .41-.079.563-.239a.764.764 0 0 0 .23-.562.754.754 0 0 0-.23-.574L3.531 2.063a.776.776 0 0 0-.574-.239.767.767 0 0 0-.57.238.79.79 0 0 0-.23.575c0 .222.077.41.23.562Zm0 0"/></svg>
